X:2
T:Pipe and Slippers
C:Ed Pritchard
M:7/8
L:1/8
K:G minor
D2 |: G2 G GABc | d2c B2 G2 | ABA AG^FG | A2 ^F D2 [D2A2] |
G2 G GABc | d2 c B2 G2 | ABA AG^F2 |[1 G3 G2 [G2D2] :|[2
K:G major
G3 G2 Bc |: d2 d d2 c2 | B2 B Bc d2 | e=fe edcB | cdc cBAB | d2 d d2 c2 | B2 BB c d2 | e=fe dcAB |[1 G3 G2 Bc :|[2 G3 G2 ||



